X:1
T:Title
%%score { 1 | 2 }
L:1/8
Q:1/4=100
M:4/4
K:G
V:1 treble nm="Grand Piano"
V:2 treble 
V:1
 B>c B>A G4 | [EG]>[EA] [EG]>[DF] [CE]4 | [B,D]>[CE] [B,D]>B, [B,D]4 | [^CG]>[CG] [CA]>[CB] [DA]4 | %4
w: W.~J.~Kirkpatrick * * * *||||
 [DGB]>[EGc] [DGB]>[CDA] [B,DG]4 | [CEG]>[CEA] [CEG]>[G,DF] [G,CE]4 | %6
w: ||
 [G,B,D]>[G,B,D] [B,DG]>[CDA] [DGB]2 [EGc]>[EGc] | [DGB]2 [CFA]2 [B,DG]4 | d>e d>B d2 [DGB]>[CDA] | %9
w: |||
 [B,DG]2 [G,E]2 [B,DG]4 | B>B B>c d2 B>A | G2 B2 [DFA]4 | [DGB]>[EGc] [DGB]>[CDA] [B,DG]4 | %13
w: ||||
 [CEG]>[CEA] [CEG]>[G,DF] [G,CE]4 | [G,B,D]>[G,B,D] [B,DG]>[CDA] [DGB]2 [EGc]>[EGc] | %15
w: ||
[M:8/4] [DGB]2 [CFA]2 [B,DG]4 z8 |] %16
w: |
V:2
 [G,DG]>[G,EG] [G,DG]>[G,CD] [G,B,D]4 | [C,C]>[C,C] [C,C]>[C,G,] [C,G,]4 | %2
 [G,,G,]>[G,,G,] [G,,G,]>[G,,G,] [G,,G,]4 | [E,G,]>[E,G,] [A,,G,]>[A,,G,] [D,F,]4 | %4
 G,,>G,, G,,>G,, G,,4 | C,>C, C,>C, C,4 | G,,>G,, G,>G, G,2 C,>C, | D,2 D,2 G,,4 | %8
 [G,B,G]>[G,CG] [G,B,G]>[G,DG] [G,B,G]2[K:bass] G,,>G,, | G,,2 C,2 G,,4 | %10
 [G,DG]>[G,DG] [G,DG]>[G,CG] [G,B,G]2 [G,DG]>[A,DF] | [B,D]2 [G,DG]2[K:bass] D,4 | %12
 G,,>G,, G,,>G,, G,,4 | C,>C, C,>C, C,4 | G,,>G,, G,>G, G,2 C,>C, |[M:8/4] D,2 D,2 G,,4 z8 |] %16

